assets/img/braze_icons/pen-tool-01.svg

<svg fill="none" height="24" viewBox="0 0 24 24" width="24" xmlns="http://www.w3.org/2000/svg"><path d="m.980458 4.51916c-.261003-.88662-.391505-1.32993-.289996-1.51293.0875-.15774.253182-.25612.433558-.25744.20926-.00154.53603.32523 1.18956.97876l6.75425 6.75425c-.04419.1652-.06775.3389-.06775.518 0 1.1046.89543 2 2.00002 2 1.1046 0 2-.8954 2-2 0-1.10453-.8954-1.99996-2-1.99996-.1792 0-.3528.02356-.5181.06774l-6.75421-6.75424c-.65353-.65354-.9803-.9803-.97876-1.18956.00133-.18038.09971-.346062.25745-.433562.18299-.101509.6263.028993 1.51292.289995l11.2982 3.325977c.2767.06564.6243.14812.9195.34061.255.16625.4687.38852.6248.64985.1806.30256.2493.65318.304.93223l1.0411 5.20662c.3041-.0451.616-.0196.9112.0763.2897.0941.5116.2537.6865.4021.1592.1352.333.309.5114.4875l.7824.7823c.1784.1785.3523.3523.4874.5115.1485.1748.308.3967.4022.6865.1305.4016.1305.8343 0 1.236-.0942.2897-.2537.5116-.4022.6865-.1351.1592-.309.333-.4874.5114l-4.7824 4.7824c-.1784.1785-.3522.3523-.5114.4874-.1749.1485-.3968.3081-.6865.4022-.4017.1305-.8344.1305-1.2361 0-.2897-.0941-.5116-.2537-.6864-.4022-.1592-.1351-.333-.3089-.5114-.4874l-.7824-.7824c-.1784-.1783-.3524-.3523-.4875-.5114-.1484-.1749-.308-.3968-.4021-.6865-.0959-.2951-.1214-.6069-.0764-.9109l-5.20677-1.0411c-.27906-.0547-.62968-.1234-.93223-.3041-.26134-.1561-.4836-.3697-.64986-.6247-.19248-.2952-.27496-.6428-.34061-.9195z" fill="#801ed7"/></svg>

<svg width="24" height="24" viewBox="0 0 24 24" fill="none" xmlns="http://www.w3.org/2000/svg">
<path d="M0.980458 4.51916C0.719455 3.63254 0.588953 3.18923 0.690462 3.00623C0.777962 2.84849 0.943644 2.75011 1.12402 2.74879C1.33328 2.74725 1.66005 3.07402 2.31358 3.72755L9.06783 10.4818C9.02364 10.647 9.00008 10.8207 9.00008 10.9998C9.00008 12.1044 9.89551 12.9998 11.0001 12.9998C12.1047 12.9998 13.0001 12.1044 13.0001 10.9998C13.0001 9.89527 12.1047 8.99984 11.0001 8.99984C10.8209 8.99984 10.6473 9.0234 10.482 9.06758L3.72779 2.31334C3.07426 1.6598 2.74749 1.33304 2.74903 1.12378C2.75036 0.9434 2.84874 0.777718 3.00648 0.690218C3.18947 0.588709 3.63278 0.719211 4.5194 0.980213L15.8176 4.30619C16.0943 4.37183 16.4419 4.45431 16.7371 4.6468C16.9921 4.81305 17.2058 5.03532 17.3619 5.29665C17.5425 5.59921 17.6112 5.94983 17.6659 6.22888L18.707 11.4355C19.0111 11.3904 19.323 11.4159 19.6182 11.5118C19.9079 11.6059 20.1298 11.7655 20.3047 11.9139C20.4639 12.0491 20.6377 12.2229 20.8161 12.4014L21.5985 13.1837C21.7769 13.3622 21.9508 13.536 22.0859 13.6952C22.2344 13.87 22.3939 14.0919 22.4881 14.3817C22.6186 14.7833 22.6186 15.216 22.4881 15.6177C22.3939 15.9074 22.2344 16.1293 22.0859 16.3042C21.9508 16.4634 21.7769 16.6372 21.5985 16.8156L16.8161 21.598C16.6377 21.7765 16.4639 21.9503 16.3047 22.0854C16.1298 22.2339 15.9079 22.3935 15.6182 22.4876C15.2165 22.6181 14.7838 22.6181 14.3821 22.4876C14.0924 22.3935 13.8705 22.2339 13.6957 22.0854C13.5365 21.9503 13.3627 21.7765 13.1843 21.598L12.4019 20.8156C12.2235 20.6373 12.0495 20.4633 11.9144 20.3042C11.766 20.1293 11.6064 19.9074 11.5123 19.6177C11.4164 19.3226 11.3909 19.0108 11.4359 18.7068L6.22913 17.6657C5.95007 17.611 5.59945 17.5423 5.2969 17.3616C5.03556 17.2055 4.8133 16.9919 4.64704 16.7369C4.45456 16.4417 4.37208 16.0941 4.30643 15.8174L0.980458 4.51916Z" fill="#801ED7"/>
</svg>
